Origami/64x64/apps/kompare.svg

<svg width="64" height="64" version="1.1" viewBox="0 0 64 64" xmlns="http://www.w3.org/2000/svg">
 <path d="m10 56v2c0 1.662 1.338 3 3 3h38c1.662 0 3-1.338 3-3v-2c0 1.662-1.338 3-3 3h-38c-1.662 0-3-1.338-3-3z" style="opacity:.2"/>
 <path d="m54 57v-50c0-1.662-1.338-3-3-3h-38c-1.662 0-3 1.338-3 3v50c0 1.662 1.338 3 3 3h38c1.662 0 3-1.338 3-3z" style="fill:#5fbb20"/>
 <path d="m13 4c-1.662 0-3 1.338-3 3v1c0-1.662 1.338-3 3-3h38c1.662 0 3 1.338 3 3v-1c0-1.662-1.338-3-3-3h-38z" style="fill:#ffffff;opacity:.1"/>
 <path d="m51.25 60c1.524 0 2.75-1.314 2.75-2.948v-25.052h-44v25.052c0 1.634 1.2264 2.948 2.75 2.948z" style="fill:#209dbb"/>
 <path d="m18 12h28v2h-28z" style="fill:#4c4c4c"/>
 <path d="m18 18h28v2h-28z" style="fill:#4c4c4c"/>
 <path d="m18 24h28v2h-28z" style="fill:#4c4c4c"/>
 <path d="m18 38h28v2h-28z" style="fill:#ffffff"/>
 <path d="m18 44h28v2h-28z" style="fill:#ffffff"/>
 <path d="m18 50h28v2h-28z" style="fill:#ffffff"/>
</svg>

<svg xmlns="http://www.w3.org/2000/svg" width="64" height="64" version="1.1" viewBox="0 0 64 64">
 <path style="opacity:0.2" d="m 10,56 0,2 c 0,1.662 1.338,3 3,3 l 38,0 c 1.662,0 3,-1.338 3,-3 l 0,-2 c 0,1.662 -1.338,3 -3,3 l -38,0 c -1.662,0 -3,-1.338 -3,-3 z"/>
 <path style="fill:#5fbb20" d="M 54,57 54,7 C 54,5.338 52.662,4 51,4 L 13,4 c -1.662,0 -3,1.338 -3,3 l 0,50 c 0,1.662 1.338,3 3,3 l 38,0 c 1.662,0 3,-1.338 3,-3 z"/>
 <path style="opacity:0.1;fill:#ffffff" d="M 13 4 C 11.338 4 10 5.338 10 7 L 10 8 C 10 6.338 11.338 5 13 5 L 51 5 C 52.662 5 54 6.338 54 8 L 54 7 C 54 5.338 52.662 4 51 4 L 13 4 z"/>
 <path style="fill:#209dbb" d="M 51.25,60 C 52.774,60 54,58.686 54,57.052 L 54,32 10,32 10,57.052 C 10,58.686 11.2264,60 12.75,60 Z"/>
 <path style="fill:#4c4c4c" d="m 18,12 28,0 0,2 -28,0 z"/>
 <path style="fill:#4c4c4c" d="m 18,18 28,0 0,2 -28,0 z"/>
 <path style="fill:#4c4c4c" d="m 18,24 28,0 0,2 -28,0 z"/>
 <path style="fill:#ffffff" d="m 18,38 28,0 0,2 -28,0 z"/>
 <path style="fill:#ffffff" d="m 18,44 28,0 0,2 -28,0 z"/>
 <path style="fill:#ffffff" d="m 18,50 28,0 0,2 -28,0 z"/>
</svg>
